svg/fluentui-system-icons/ic_fluent_hat_graduation_24_filled.svg

<svg width="24" height="24" viewBox="0 0 24 24" fill="none" xmlns="http://www.w3.org/2000/svg">
<path d="M5 17.749V13.9833L9.06017 16.636C10.8463 17.8029 13.1537 17.8029 14.9398 16.636L19 13.9833V17.749C19 17.9113 18.9474 18.0692 18.85 18.199L18.8489 18.2005L18.8477 18.2021L18.8446 18.2061L18.8364 18.2168L18.8243 18.2322L18.8111 18.2486C18.7904 18.2742 18.7619 18.3085 18.7253 18.3503C18.6522 18.4339 18.5469 18.5474 18.4081 18.6807C18.1305 18.9472 17.7176 19.2938 17.1587 19.6378C16.0359 20.3287 14.3387 20.999 12 20.999C9.66127 20.999 7.96408 20.3287 6.8413 19.6378C6.2824 19.2938 5.86951 18.9472 5.59193 18.6807C5.45308 18.5474 5.34778 18.4339 5.27468 18.3503C5.23812 18.3085 5.20956 18.2742 5.18885 18.2486C5.1785 18.2358 5.17009 18.2251 5.16363 18.2168L5.15537 18.2061L5.15233 18.2021L5.15107 18.2005C5.05371 18.0706 5 17.9113 5 17.749ZM22.1602 10.1269L14.1194 15.3802C12.8317 16.2215 11.1683 16.2215 9.88058 15.3802L3 10.8849L3 16.249C3 16.6632 2.66421 16.999 2.25 16.999C1.83579 16.999 1.5 16.6632 1.5 16.249V9.99902C1.5 9.91126 1.51508 9.82701 1.54278 9.74874C1.51448 9.66861 1.49963 9.58319 1.50001 9.49579C1.50111 9.24141 1.63108 9.00492 1.84525 8.86764L9.90878 3.69866C11.1832 2.8817 12.8168 2.88169 14.0912 3.69866L22.1548 8.86764C22.3689 9.00492 22.4989 9.24141 22.5 9.49579C22.501 9.71838 22.4031 9.92812 22.236 10.0703C22.2121 10.0906 22.1868 10.1095 22.1602 10.1269Z" fill="#212121"/>
</svg>

<svg xmlns="http://www.w3.org/2000/svg" width="24" height="24"><path d="M5 17.749v-3.766l4.06 2.653a5.375 5.375 0 0 0 5.88 0L19 13.983v3.766a.75.75 0 0 1-.15.45l-.001.002-.001.001-.003.004-.009.01-.012.016-.013.017-.086.101a5.297 5.297 0 0 1-.317.33c-.277.267-.69.614-1.25.958-1.122.69-2.82 1.361-5.158 1.361-2.339 0-4.036-.67-5.159-1.361a7.432 7.432 0 0 1-1.25-.957 5.285 5.285 0 0 1-.427-.464l-.009-.01-.003-.005V18.2A.756.756 0 0 1 5 17.75Zm17.16-7.622-8.04 5.253a3.875 3.875 0 0 1-4.24 0L3 10.885v5.364a.75.75 0 0 1-1.5 0v-6.25c0-.088.015-.172.043-.25a.75.75 0 0 1 .302-.881l8.064-5.17a3.875 3.875 0 0 1 4.182 0l8.064 5.17a.75.75 0 0 1 .005 1.259Z"/></svg>
